icons/ArrowSplitUpLeft_filled.svg

<svg width="24" height="24" viewBox="0 0 24 24" fill="none" xmlns="http://www.w3.org/2000/svg">
<path fill-rule="evenodd" clip-rule="evenodd" d="M8.99998,1.74988c0.69036,-0.00001 1.25002,0.55963 1.25002,1.24998c0,0.69036 -0.55963,1.25001 -1.24998,1.25002l-1.98266,0.00002l5.40214,5.40216l0.0001,0.00011c1.1715,1.17173 1.8297,2.76063 1.83,4.41753v0.0002l0.0004,6.9299c0,0.6904 -0.5596,1.25 -1.2499,1.2501c-0.6904,0 -1.2501,-0.5596 -1.2501,-1.25l-0.0004,-6.9297v-0.0002c-0.0002,-0.994 -0.3951,-1.9472 -1.0978,-2.6502l-0.0002,-0.0001l-5.40174,-5.40177l0.00014,1.98186c0.00005,0.69035 -0.55955,1.25004 -1.24991,1.25009c-0.69035,0.00005 -1.25004,-0.55955 -1.25009,-1.24991l-0.00037,-4.99994c-0.00002,-0.33153 0.13166,-0.6495 0.36608,-0.88394c0.23442,-0.23444 0.55238,-0.36615 0.88391,-0.36615zM15.4993,8.25018c0.6903,0 1.25,0.55965 1.25,1.25c0,0.69032 -0.5597,1.25002 -1.25,1.25002c-0.6904,0 -1.25,-0.5597 -1.25,-1.25002c0,-0.69035 0.5596,-1.25 1.25,-1.25zM19.9993,6.25018c-0.6904,0 -1.25,-0.55964 -1.25,-1.25c0,-0.69035 0.5596,-1.25 1.25,-1.25c0.6903,0 1.25,0.55965 1.25,1.25c0,0.69036 -0.5597,1.25 -1.25,1.25zM17.7493,6.00018c0.6903,0 1.25,0.55965 1.25,1.25c0,0.69036 -0.5597,1.25 -1.25,1.25c-0.6904,0 -1.25,-0.55964 -1.25,-1.25c0,-0.69035 0.5596,-1.25 1.25,-1.25z" fill="#002B51"/>
</svg>

<svg width="24" height="24" viewBox="0 0 24 24" fill="none" xmlns="http://www.w3.org/2000/svg">
<path fill-rule="evenodd" clip-rule="evenodd" d="M8.99998 1.74988C9.69034 1.74987 10.25 2.30951 10.25 2.99986C10.25 3.69022 9.69037 4.24987 9.00002 4.24988L7.01736 4.2499L12.4195 9.65206L12.4196 9.65217C13.5911 10.8239 14.2493 12.4128 14.2496 14.0697V14.0699L14.25 20.9998C14.25 21.6902 13.6904 22.2498 13.0001 22.2499C12.3097 22.2499 11.75 21.6903 11.75 20.9999L11.7496 14.0702V14.07C11.7494 13.076 11.3545 12.1228 10.6518 11.4198L10.6516 11.4197L5.24986 6.01793L5.25 7.99979C5.25005 8.69014 4.69045 9.24983 4.00009 9.24988C3.30974 9.24993 2.75005 8.69033 2.75 7.99997L2.74963 3.00003C2.74961 2.6685 2.88129 2.35053 3.11571 2.11609C3.35013 1.88165 3.66809 1.74994 3.99962 1.74994L8.99998 1.74988ZM15.4993 8.25018C16.1896 8.25018 16.7493 8.80983 16.7493 9.50018C16.7493 10.1905 16.1896 10.7502 15.4993 10.7502C14.8089 10.7502 14.2493 10.1905 14.2493 9.50018C14.2493 8.80983 14.8089 8.25018 15.4993 8.25018ZM21.2493 5.00018C21.2493 4.30983 20.6896 3.75018 19.9993 3.75018C19.3089 3.75018 18.7493 4.30983 18.7493 5.00018C18.7493 5.69054 19.3089 6.25018 19.9993 6.25018C20.6896 6.25018 21.2493 5.69054 21.2493 5.00018ZM17.7493 6.00018C18.4396 6.00018 18.9993 6.55983 18.9993 7.25018C18.9993 7.94054 18.4396 8.50018 17.7493 8.50018C17.0589 8.50018 16.4993 7.94054 16.4993 7.25018C16.4993 6.55983 17.0589 6.00018 17.7493 6.00018Z" fill="#002B51"/>
</svg>
